sites/all/themes/iobytheme/img/facebook-logo-footer.svg

<svg height="30" viewBox="0 0 30 30" width="30" xmlns="http://www.w3.org/2000/svg"><path d="m203.339845 1c.455731 0 .846353.16275875 1.171874.48828061.325522.32552187.488281.71614374.488281 1.17187436v26.67968873c0 .4557315-.162759.8463525-.488281 1.1718752-.325521.3255223-.716143.4882811-1.171874.4882811h-7.63672v-11.6210935h3.886719l.585935-4.5312487h-4.472654v-2.890628c0-.7291681.152994-1.2760388.458986-1.640625.305987-.36458186.901687-.54687498 1.787109-.54687498l2.382813-.01953v-4.04296804c-.820317-.11718875-1.979163-.17578312-3.476563-.17578312-1.770843 0-3.186847.52083061-4.248047 1.56250059-1.061204 1.04167435-1.5918 2.51301307-1.5918 4.41406425v3.3398443h-3.906249v4.5312487h3.906249v11.6210935h-14.355467c-.455731 0-.846352-.1627588-1.171875-.4882811-.325522-.3255227-.488281-.7161437-.488281-1.1718752v-26.67968873c0-.45573062.162759-.84635249.488281-1.17187436.325523-.32552186.716144-.48828061 1.171875-.48828061z" fill="#3da9e0" fill-rule="evenodd" transform="translate(-175 -1)"/></svg>

<svg width="30px" height="30px" viewBox="0 0 30 30" version="1.1" xmlns="http://www.w3.org/2000/svg" xmlns:xlink="http://www.w3.org/1999/xlink">
    <!-- Generator: Sketch 48.2 (47327) - http://www.bohemiancoding.com/sketch -->
    <desc>Created with Sketch.</desc>
    <defs></defs>
    <g id="R3" stroke="none" stroke-width="1" fill="none" fill-rule="evenodd">
        <g id="ROUND-3—no-cart,-one-promo-Copy" transform="translate(-1024.000000, -7380.000000)" fill="#3DA9E0">
            <g id="Footer" transform="translate(0.000000, 6840.000000)">
                <g id="Group-6">
                    <g id="Group-3" transform="translate(179.000000, 0.000000)">
                        <g id="Group" transform="translate(670.000000, 539.000000)">
                            <path d="M203.339845,1 C203.795576,1 204.186198,1.16275875 204.511719,1.48828061 C204.837241,1.81380248 205,2.20442435 205,2.66015497 L205,29.3398437 C205,29.7955752 204.837241,30.1861962 204.511719,30.5117189 C204.186198,30.8372412 203.795576,31 203.339845,31 L195.703125,31 L195.703125,19.3789065 L199.589844,19.3789065 L200.175779,14.8476578 L195.703125,14.8476578 L195.703125,11.9570298 C195.703125,11.2278617 195.856119,10.680991 196.162111,10.3164048 C196.468098,9.95182294 197.063798,9.76952982 197.94922,9.76952982 L200.332033,9.74999982 L200.332033,5.70703178 C199.511716,5.58984303 198.35287,5.53124866 196.85547,5.53124866 C195.084627,5.53124866 193.668623,6.05207927 192.607423,7.09374925 C191.546219,8.1354236 191.015623,9.60676232 191.015623,11.5078135 L191.015623,14.8476578 L187.109374,14.8476578 L187.109374,19.3789065 L191.015623,19.3789065 L191.015623,31 L176.660156,31 C176.204425,31 175.813804,30.8372412 175.488281,30.5117189 C175.162759,30.1861962 175,29.7955752 175,29.3398437 L175,2.66015497 C175,2.20442435 175.162759,1.81380248 175.488281,1.48828061 C175.813804,1.16275875 176.204425,1 176.660156,1 L203.339845,1 Z" id="Page-1"></path>
                        </g>
                    </g>
                </g>
            </g>
        </g>
    </g>
</svg>
